packages/ffe-icons/icons/filled/md/align_justify_stretch.svg

<svg xmlns="http://www.w3.org/2000/svg" height="24" viewBox="0 -960 960 960" width="24"><path d="M829.986-100.001q-12.756 0-21.371-8.625Q800-117.251 800-130.001v-699.998q0-12.75 8.629-21.375 8.628-8.625 21.384-8.625 12.755 0 21.37 8.625 8.616 8.625 8.616 21.375v699.998q0 12.75-8.629 21.375t-21.384 8.625Zm-699.999 0q-12.755 0-21.37-8.625-8.616-8.625-8.616-21.375v-699.998q0-12.75 8.629-21.375t21.384-8.625q12.756 0 21.371 8.625Q160-842.749 160-829.999v699.998q0 12.75-8.629 21.375-8.628 8.625-21.384 8.625Zm416.166-470q-15.365 0-25.76-10.394-10.394-10.394-10.394-25.759v-27.692q0-15.365 10.394-25.759 10.395-10.394 25.76-10.394h127.693q15.365 0 25.759 10.394t10.394 25.759v27.692q0 15.365-10.394 25.759t-25.759 10.394H546.153Zm-259.999 0q-15.365 0-25.759-10.394t-10.394-25.759v-27.692q0-15.365 10.394-25.759t25.759-10.394h127.693q15.365 0 25.76 10.394 10.394 10.394 10.394 25.759v27.692q0 15.365-10.394 25.759-10.395 10.394-25.76 10.394H286.154Zm259.999 280q-15.365 0-25.76-10.394-10.394-10.394-10.394-25.759v-27.692q0-15.365 10.394-25.759 10.395-10.394 25.76-10.394h127.693q15.365 0 25.759 10.394t10.394 25.759v27.692q0 15.365-10.394 25.759t-25.759 10.394H546.153Zm-259.999 0q-15.365 0-25.759-10.394t-10.394-25.759v-27.692q0-15.365 10.394-25.759t25.759-10.394h127.693q15.365 0 25.76 10.394 10.394 10.394 10.394 25.759v27.692q0 15.365-10.394 25.759-10.395 10.394-25.76 10.394H286.154Z"/></svg>

<svg xmlns="http://www.w3.org/2000/svg" height="24" viewBox="0 -960 960 960" width="24"><path d="M829.99-100q-12.76 0-21.37-8.63Q800-117.25 800-130v-700q0-12.75 8.63-21.37 8.63-8.63 21.38-8.63 12.76 0 21.37 8.63Q860-842.75 860-830v700q0 12.75-8.63 21.37-8.63 8.63-21.38 8.63Zm-700 0q-12.76 0-21.37-8.63Q100-117.25 100-130v-700q0-12.75 8.63-21.37 8.63-8.63 21.38-8.63 12.76 0 21.37 8.63Q160-842.75 160-830v700q0 12.75-8.63 21.37-8.63 8.63-21.38 8.63Zm416.16-470q-15.36 0-25.76-10.39Q510-590.79 510-606.15v-27.7q0-15.36 10.39-25.76Q530.79-670 546.15-670h127.7q15.36 0 25.76 10.39Q710-649.21 710-633.85v27.7q0 15.36-10.39 25.76Q689.21-570 673.85-570h-127.7Zm-260 0q-15.36 0-25.76-10.39Q250-590.79 250-606.15v-27.7q0-15.36 10.39-25.76Q270.79-670 286.15-670h127.7q15.36 0 25.76 10.39Q450-649.21 450-633.85v27.7q0 15.36-10.39 25.76Q429.21-570 413.85-570h-127.7Zm260 280q-15.36 0-25.76-10.39Q510-310.79 510-326.15v-27.7q0-15.36 10.39-25.76Q530.79-390 546.15-390h127.7q15.36 0 25.76 10.39Q710-369.21 710-353.85v27.7q0 15.36-10.39 25.76Q689.21-290 673.85-290h-127.7Zm-260 0q-15.36 0-25.76-10.39Q250-310.79 250-326.15v-27.7q0-15.36 10.39-25.76Q270.79-390 286.15-390h127.7q15.36 0 25.76 10.39Q450-369.21 450-353.85v27.7q0 15.36-10.39 25.76Q429.21-290 413.85-290h-127.7Z"/></svg>
